svg/u2642.svg

<svg viewBox="0 0 128 128" xmlns="http://www.w3.org/2000/svg">
  <path d="M106.7,6.9H76.53c-2.23,0-4.06,1.83-4.06,4.06v8.13c0,2.23,1.83,4.06,4.06,4.06h16.26 c0.91,0,1.32,1.12,0.71,1.73L71.25,46.03c-17.06-11.58-40.83-9.34-55.35,6.6C0.87,68.99,1.07,94.48,16.2,110.63 c16.56,17.57,44.28,17.88,61.24,0.91c14.73-14.73,16.45-37.48,5.18-54.03l22.25-21.15c0.61-0.61,1.73-0.2,1.73,0.71v16.26 c0,2.23,1.83,4.06,4.06,4.06h8.13c2.23,0,4.06-1.83,4.06-4.06V10.96c0-2.23-1.83-4.06-4.06-4.06C118.89,6.9,106.7,6.9,106.7,6.9z M65.46,99.45c-9.95,9.95-26.2,9.95-36.26,0s-9.95-26.2,0-36.16s26.2-9.95,36.26,0S75.41,89.5,65.46,99.45z" fill="#00796B"/>
  <linearGradient id="SVGID_1_" gradientTransform="matrix(1 0 0 -1 0 -1534.0001)" gradientUnits="userSpaceOnUse" x1="63.8035" x2="63.8035" y1="-1538.156" y2="-1653.7789">
    <stop offset="0" stop-color="#00BFA5"/>
    <stop offset="0.7047" stop-color="#00B29A"/>
    <stop offset="1" stop-color="#00AB94"/>
  </linearGradient>
  <path d="M106.71,3.87H76.54c-2.23,0-4.06,1.83-4.06,4.06v7.09c0,2.23,1.83,4.06,4.06,4.06H92.8 c0.91,0,2.27,1.28,0.71,2.76L71.26,43c-17.06-11.58-40.83-9.34-55.35,6.6c-15.03,16.35-14.83,40.81,0.3,56.96 c16.56,17.57,44.28,17.88,61.24,0.91c14.73-14.73,15.58-37.54,4.31-54.1l22.49-21.24c1.35-1.2,2.56,0.62,2.36,1.9v15.22 c0,2.23,1.83,4.06,4.06,4.06h8.13c2.23,0,4.06-1.83,4.06-4.06V7.94c0-2.23-1.83-4.06-4.06-4.06C118.9,3.87,106.71,3.87,106.71,3.87z M65.47,96.43c-9.95,9.95-26.2,9.95-36.26,0s-9.95-27.24,0-37.19s26.2-9.95,36.26,0S75.42,86.47,65.47,96.43z" fill="url(#SVGID_1_)"/>
  <path d="M86.19,7.33c0-0.91-0.61-1.22-4.27-1.02 c-3.05,0.1-4.47,0.51-5.38,1.52s-1.12,3.35-1.22,5.99c0,1.93,0,3.66,1.02,3.66c1.42,0,1.42-3.15,2.44-4.88 C80.81,9.26,86.19,8.55,86.19,7.33z" opacity="0.3" fill="#FFFFFF" enable-background="new "/>
  <path d="M109.1,40.59c-0.91,0-1.22,0.61-1.02,4.27 c0.1,3.05,0.51,4.47,1.52,5.38s3.35,1.12,5.99,1.22c1.93,0,3.66,0,3.66-1.02c0-1.42-3.15-1.42-4.88-2.44 C111.03,45.98,110.32,40.59,109.1,40.59z" opacity="0.3" fill="#FFFFFF" enable-background="new "/>
  <path d="M17.07,53.61c3.82-5.8,11.93-11.96,20.77-13.45 c2.19-0.4,4.37-0.5,6.26,0.2c1.39,0.5,2.58,1.89,1.79,3.38c-0.6,1.19-4.23,1.07-5.53,1.46c-4.54,1.16-8.26,2.51-11.22,4.41 c-3.94,2.53-7.68,7.07-9.36,10.04c-3.19,5.63-4.27,10.71-6.85,8.82C10.45,66.77,13.25,59.42,17.07,53.61z" opacity="0.3" fill="#FFFFFF" enable-background="new "/>
</svg>

<svg viewBox="0 0 128 128" xmlns="http://www.w3.org/2000/svg">
  <defs>
    <linearGradient id="SVGID_1_" gradientTransform="matrix(1 0 0 -1 0 0)" gradientUnits="userSpaceOnUse" x1="63.8035" x2="63.8035" y1="-4.1559" y2="-119.7788">
      <stop offset="0" stop-color="#00BFA5"/>
      <stop offset="0.7047" stop-color="#00B29A"/>
      <stop offset="1" stop-color="#00AB94"/>
    </linearGradient>
  </defs>
  <path d="M106.7,6.9 L76.53,6.9 C74.3,6.9 72.47,8.73 72.47,10.96 L72.47,19.09 C72.47,21.32 74.3,23.15 76.53,23.15 L92.79,23.15 C93.7,23.15 94.11,24.27 93.5,24.88 L71.25,46.03 C54.19,34.45 30.42,36.69 15.9,52.63 C0.87,68.99 1.07,94.48 16.2,110.63 C32.76,128.2 60.48,128.51 77.44,111.54 C92.17,96.81 93.89,74.06 82.62,57.51 L104.87,36.36 C105.48,35.75 106.6,36.16 106.6,37.07 L106.6,53.33 C106.6,55.56 108.43,57.39 110.66,57.39 L118.79,57.39 C121.02,57.39 122.85,55.56 122.85,53.33 L122.85,10.96 C122.85,8.73 121.02,6.9 118.79,6.9 C118.89,6.9 106.7,6.9 106.7,6.9 Z M65.46,99.45 C55.51,109.4 39.26,109.4 29.2,99.45 C19.14,89.5 19.25,73.25 29.2,63.29 C39.15,53.33 55.4,53.34 65.46,63.29 C75.52,73.24 75.41,89.5 65.46,99.45 Z" fill="#00796B"/>
  <path d="M106.71,3.87 L76.54,3.87 C74.31,3.87 72.48,5.7 72.48,7.93 L72.48,15.02 C72.48,17.25 74.31,19.08 76.54,19.08 L92.8,19.08 C93.71,19.08 95.07,20.36 93.51,21.84 L71.26,43 C54.2,31.42 30.43,33.66 15.91,49.6 C0.88,65.95 1.08,90.41 16.21,106.56 C32.77,124.13 60.49,124.44 77.45,107.47 C92.18,92.74 93.03,69.93 81.76,53.37 L104.25,32.13 C105.6,30.93 106.81,32.75 106.61,34.03 L106.61,49.25 C106.61,51.48 108.44,53.31 110.67,53.31 L118.8,53.31 C121.03,53.31 122.86,51.48 122.86,49.25 L122.86,7.94 C122.86,5.71 121.03,3.88 118.8,3.88 C118.9,3.87 106.71,3.87 106.71,3.87 Z M65.47,96.43 C55.52,106.38 39.27,106.38 29.21,96.43 C19.15,86.48 19.26,69.19 29.21,59.24 C39.16,49.29 55.41,49.29 65.47,59.24 C75.53,69.19 75.42,86.47 65.47,96.43 Z" fill="url(#SVGID_1_)"/>
  <path d="M86.19,7.33 C86.19,6.42 85.58,6.11 81.92,6.31 C78.87,6.41 77.45,6.82 76.54,7.83 C75.63,8.84 75.42,11.18 75.32,13.82 C75.32,15.75 75.32,17.48 76.34,17.48 C77.76,17.48 77.76,14.33 78.78,12.6 C80.81,9.26 86.19,8.55 86.19,7.33 Z" fill="#FFFFFF" opacity="0.3"/>
  <path d="M109.1,40.59 C108.19,40.59 107.88,41.2 108.08,44.86 C108.18,47.91 108.59,49.33 109.6,50.24 C110.61,51.15 112.95,51.36 115.59,51.46 C117.52,51.46 119.25,51.46 119.25,50.44 C119.25,49.02 116.1,49.02 114.37,48 C111.03,45.98 110.32,40.59 109.1,40.59 Z" fill="#FFFFFF" opacity="0.3"/>
  <path d="M17.07,53.61 C20.89,47.81 29,41.65 37.84,40.16 C40.03,39.76 42.21,39.66 44.1,40.36 C45.49,40.86 46.68,42.25 45.89,43.74 C45.29,44.93 41.66,44.81 40.36,45.2 C35.82,46.36 32.1,47.71 29.14,49.61 C25.2,52.14 21.46,56.68 19.78,59.65 C16.59,65.28 15.51,70.36 12.93,68.47 C10.45,66.77 13.25,59.42 17.07,53.61 Z" fill="#FFFFFF" opacity="0.3"/>
</svg>
